X:88
T:Smash the Windows. RH.088
R:Jig
S:Rev.R.Harrison’s MS,c1815,Cumbria
N:I added the leading rest. PJH.
O:England
A:Temple Sowerby,Cumbria
Z:vmp.Simon Wilson. Review PJH, 2008.
M:6/8
L:1/8
Q:3/8=120
K:D
z|DED F2A|d2f ecA|G2B F2A|E2F GFE|!
DED F2A|d2f ecA|Bgf edc|d3 D2:|!
|:f/g/|a2f d2A|F2a agf|g2e B2G|E2g gfe|!
f2d g2e|a2f b2g|fed edc|d3 D2:|

